modules/feathericon/icons/google-plus.svg

<?xml version="1.0" encoding="UTF-8"?>
<svg width="14px" height="9px" viewBox="0 0 14 9" version="1.1" xmlns="http://www.w3.org/2000/svg" xmlns:xlink="http://www.w3.org/1999/xlink">
    <!-- Generator: sketchtool 48.1 (47250) - http://www.bohemiancoding.com/sketch -->
    <title>google-plus</title>
    <desc>Created with sketchtool.</desc>
    <defs></defs>
    <g id="brand" stroke="none" stroke-width="1" fill="none" fill-rule="evenodd">
        <g id="google-plus" fill="#000000">
            <path d="M4.45454545,3.81818182 L8.66090909,3.81818182 C8.69909091,4.04090909 8.73090909,4.26363636 8.73090909,4.55636364 C8.73090909,7.10181818 7.02545455,8.90909091 4.45454545,8.90909091 C1.99181818,8.90909091 0,6.91727273 0,4.45454545 C0,1.99181818 1.99181818,0 4.45454545,0 C5.65727273,0 6.66272727,0.439090909 7.43909091,1.16454545 L6.23,2.32909091 C5.89909091,2.01090909 5.32,1.64181818 4.45454545,1.64181818 C2.93363636,1.64181818 1.69272727,2.90181818 1.69272727,4.45454545 C1.69272727,6.00727273 2.93363636,7.26727273 4.45454545,7.26727273 C6.21727273,7.26727273 6.87909091,6.00090909 6.98090909,5.34545455 L4.45454545,5.34545455 L4.45454545,3.81818182 Z M14,3.81818182 L14,5.09090909 L12.7272727,5.09090909 L12.7272727,6.36363636 L11.4545455,6.36363636 L11.4545455,5.09090909 L10.1818182,5.09090909 L10.1818182,3.81818182 L11.4545455,3.81818182 L11.4545455,2.54545455 L12.7272727,2.54545455 L12.7272727,3.81818182 L14,3.81818182 Z" id="Shape"></path>
        </g>
    </g>
</svg>

<svg width="14" height="9" viewBox="0 0 14 9" xmlns="http://www.w3.org/2000/svg"><path d="M4.455 3.818H8.66c.038.223.07.446.07.738 0 2.546-1.706 4.353-4.276 4.353A4.451 4.451 0 0 1 0 4.455 4.451 4.451 0 0 1 4.455 0a4.27 4.27 0 0 1 2.984 1.165L6.23 2.329c-.33-.318-.91-.687-1.775-.687-1.521 0-2.762 1.26-2.762 2.813 0 1.552 1.24 2.812 2.762 2.812 1.762 0 2.424-1.266 2.526-1.922H4.455V3.818zm9.545 0v1.273h-1.273v1.273h-1.272V5.09h-1.273V3.818h1.273V2.545h1.272v1.273H14z" fill="#000" fill-rule="evenodd"/></svg>
